X:1
T:Rock of Ages
T:Text: Augustus M. Toplady (1740-1778) Tune: Thomas Hastings (1784-1872)
T:77 77 77 TOPLADY www.hymnary.org/text/rock_of_ages_cleft_for_me_let_me_hide
T:Rock of Ages
T:This hymn is in the public domain.  You may freely use this score for personal and congregational worship.  If you reproduce the score, please credit Hymnary.org as the source. 
T:This hymn is in the public domain.  You may freely use this score for personal and congregational worship.  If you reproduce the score, please credit Hymnary.org as the source. 
Z:This hymn is in the public domain.  You may freely use this score for personal and congregational worship.  If you reproduce the score, please credit Hymnary.org as the source.
%%score ( 1 2 ) ( 3 4 )
L:1/8
M:3/4
K:Bb
V:1 treble nm="Piano" snm="Pno."
V:2 treble 
V:3 bass nm="Piano" snm="Pno."
V:4 bass 
V:1
 [DF]>[EG] | [DF]2 [B,D]2 [DB]>[EG] | [DF]4 [FB]>[Gc] | [Fd]3 [Ec] [DB][CA] | [DB]4 [CA]>[DB] | %5
w: 3~Noth- ing|in my hand I|bring, sim- ply|to the cross I|cling; na- ked,|
w: 1~Rock of|A- ges, cleft for|me, let me|hide my- self in|thee; let the|
w: 2~Not the|la- bors of my|hands can ful-|fill thy law's de-|mands; could my|
 [Ec]3 [Ec] AF | [DB]4 | [CA]>[DB] | [Ec]3 [Ec] AF | [DB]4 [DF]>[EG] | [DF]2 [B,D]2 | [DB]>[EG] | %12
w: come to thee for|dress,|help- less,|look to thee for|grace; foul, I|to the|foun- tain|
w: wa- ter and the|blood,|from thy|woun- ded side which|flowed, be of|sin the|dou- ble|
w: zeal no re- spite|know,|could my|tears for- e- ver|flow, all for|sin could|not a-|
 [DF]4 [FB]>[Gc] | [Fd]3 [Ec] [DB][CA] | [DB]4 |] %15
w: fly, wash me,|Sa- vior, or I|die!|
w: cure, save from|wrath and make me|pure.|
w: tone; thou must|save and thou a-|lone.|
V:2
 x2 | x6 | x6 | x6 | x6 | x4 EE | x4 | x2 | x4 EE | x6 | x4 | x2 | x6 | x6 | x4 |] %15
V:3
 [B,,B,]>[B,,B,] | [B,,B,]2 [B,,F,]2 [B,,F,]>[B,,B,] | [B,,B,]4 [D,B,]>[E,B,] | %3
 [F,B,]3 F, [F,,F,][F,,F,] | [B,,F,]4 F,>B, | [F,A,]3 [F,A,] [F,C][F,A,] | [B,,B,]4 | F,>B, | %8
 [F,A,]3 [F,A,] [F,C][F,A,] | [B,,B,]4 [B,,B,]>[B,,B,] | [B,,B,]2 [B,,F,]2 | [B,,F,]>[B,,B,] | %12
 [B,,B,]4 [D,B,]>[E,B,] | [F,B,]3 F, [F,,F,][F,,F,] | [B,,F,]4 |] %15
V:4
 x2 | x6 | x6 | x6 | x4 F,>F, | x6 | x4 | F,>F, | x6 | x6 | x4 | x2 | x6 | x2 x F, x2 | x4 |] %15

